Numix/16/status/indicator-keyboard-He.svg

<?xml version="1.0" encoding="UTF-8" standalone="no"?>
<svg
   xmlns:dc="http://purl.org/dc/elements/1.1/"
   xmlns:cc="http://creativecommons.org/ns#"
   xmlns:rdf="http://www.w3.org/1999/02/22-rdf-syntax-ns#"
   xmlns:svg="http://www.w3.org/2000/svg"
   xmlns="http://www.w3.org/2000/svg"
   xmlns:sodipodi="http://sodipodi.sourceforge.net/DTD/sodipodi-0.dtd"
   xmlns:inkscape="http://www.inkscape.org/namespaces/inkscape"
   viewBox="0 0 16 16"
   id="svg2"
   version="1.1"
   inkscape:version="0.91 r13725"
   sodipodi:docname="indicator-keyboard-He.svg">
  <metadata
     id="metadata13">
    <rdf:RDF>
      <cc:Work
         rdf:about="">
        <dc:format>image/svg+xml</dc:format>
        <dc:type
           rdf:resource="http://purl.org/dc/dcmitype/StillImage" />
      </cc:Work>
    </rdf:RDF>
  </metadata>
  <defs
     id="defs11" />
  <sodipodi:namedview
     pagecolor="#ffffff"
     bordercolor="#666666"
     borderopacity="1"
     objecttolerance="10"
     gridtolerance="10"
     guidetolerance="10"
     inkscape:pageopacity="0"
     inkscape:pageshadow="2"
     inkscape:window-width="640"
     inkscape:window-height="480"
     id="namedview9"
     showgrid="false"
     inkscape:zoom="14.75"
     inkscape:cx="8"
     inkscape:cy="8"
     inkscape:window-x="65"
     inkscape:window-y="24"
     inkscape:window-maximized="0"
     inkscape:current-layer="svg2" />
  <path
     style="fill:#ececec;fill-opacity:1"
     d="M 1.5996094 0 C 0.71320937 2.9605947e-16 0 0.71320937 0 1.5996094 L 0 14.400391 C 2.9605947e-16 15.286791 0.71320937 16 1.5996094 16 L 14.400391 16 C 15.286791 16 16 15.286791 16 14.400391 L 16 1.5996094 C 16 0.71320937 15.286791 0 14.400391 0 L 1.5996094 0 z M 3.09375 4.8320312 L 3.7050781 4.8320312 L 3.7050781 7.5410156 L 7.0898438 7.5410156 L 7.0898438 4.8320312 L 7.7011719 4.8320312 L 7.7011719 11.068359 L 7.0898438 11.068359 L 7.0898438 8.0722656 L 3.7050781 8.0722656 L 3.7050781 11.068359 L 3.09375 11.068359 L 3.09375 4.8320312 z M 11.035156 6.3085938 C 11.605156 6.3085938 12.058531 6.4932344 12.394531 6.8652344 C 12.736531 7.2372344 12.90625 7.8119375 12.90625 8.5859375 C 12.90625 8.6339375 12.904438 8.6805156 12.898438 8.7285156 C 12.898438 8.7765156 12.894672 8.8212812 12.888672 8.8632812 L 9.6210938 8.8632812 C 9.6390937 9.4332812 9.7809218 9.8717345 10.044922 10.177734 C 10.308922 10.483734 10.728688 10.636719 11.304688 10.636719 C 11.622688 10.636719 11.874547 10.606875 12.060547 10.546875 C 12.246547 10.486875 12.382797 10.436531 12.466797 10.394531 L 12.574219 10.898438 C 12.490219 10.946438 12.331656 11.002359 12.097656 11.068359 C 11.869656 11.134359 11.599109 11.167969 11.287109 11.167969 C 10.879109 11.167969 10.530187 11.108281 10.242188 10.988281 C 9.9541874 10.868281 9.71725 10.700375 9.53125 10.484375 C 9.34525 10.268375 9.2109531 10.01275 9.1269531 9.71875 C 9.0429531 9.41875 9 9.0922813 9 8.7382812 C 9 8.3302812 9.057875 7.9757812 9.171875 7.6757812 C 9.291875 7.3697813 9.4448594 7.1141562 9.6308594 6.9101562 C 9.8228594 6.7061563 10.039297 6.5569375 10.279297 6.4609375 C 10.525297 6.3589375 10.777156 6.3085938 11.035156 6.3085938 z M 11.042969 6.8300781 C 10.832969 6.8300781 10.644563 6.8710781 10.476562 6.9550781 C 10.314562 7.0390781 10.170922 7.1548281 10.044922 7.2988281 C 9.9249218 7.4368281 9.8278594 7.5972031 9.7558594 7.7832031 C 9.6898594 7.9692031 9.652625 8.1651406 9.640625 8.3691406 L 12.304688 8.3691406 C 12.292687 7.8831406 12.176937 7.504375 11.960938 7.234375 C 11.744937 6.964375 11.438969 6.8300781 11.042969 6.8300781 z "
     id="path4" />
</svg>

<svg xmlns="http://www.w3.org/2000/svg" viewBox="0 0 16 16">
 <path d="m 1.6 0 c -0.886 0 -1.6 0.713 -1.6 1.6 l 0 12.801 c 0 0.886 0.713 1.6 1.6 1.6 l 12.801 0 c 0.886 0 1.6 -0.713 1.6 -1.6 l 0 -12.801 c 0 -0.886 -0.713 -1.6 -1.6 -1.6 l -12.801 0 z m 1.494 4.832 l 0.611 0 l 0 2.709 l 3.385 0 l 0 -2.709 l 0.611 0 l 0 6.236 l -0.611 0 l 0 -2.996 l -3.385 0 l 0 2.996 l -0.611 0 l 0 -6.236 z m 7.941 1.477 c 0.57 0 1.023 0.185 1.359 0.557 c 0.342 0.372 0.512 0.947 0.512 1.721 c 0 0.048 -0.002 0.095 -0.008 0.143 c 0 0.048 -0.004 0.093 -0.01 0.135 l -3.268 0 c 0.018 0.57 0.16 1.01 0.424 1.314 c 0.264 0.306 0.684 0.459 1.26 0.459 c 0.318 0 0.57 -0.03 0.756 -0.09 c 0.186 -0.06 0.322 -0.11 0.406 -0.152 l 0.107 0.504 c -0.084 0.048 -0.243 0.104 -0.477 0.17 c -0.228 0.066 -0.499 0.1 -0.811 0.1 c -0.408 0 -0.757 -0.06 -1.045 -0.18 c -0.288 -0.12 -0.525 -0.288 -0.711 -0.504 c -0.186 -0.216 -0.32 -0.472 -0.404 -0.766 c -0.084 -0.3 -0.127 -0.626 -0.127 -0.98 c 0 -0.408 0.058 -0.762 0.172 -1.062 c 0.12 -0.306 0.273 -0.562 0.459 -0.766 c 0.192 -0.204 0.408 -0.353 0.648 -0.449 c 0.246 -0.102 0.498 -0.152 0.756 -0.152 z m 0.008 0.521 c -0.21 0 -0.398 0.041 -0.566 0.125 c -0.162 0.084 -0.306 0.2 -0.432 0.344 c -0.12 0.138 -0.217 0.298 -0.289 0.484 c -0.066 0.186 -0.103 0.382 -0.115 0.586 l 2.664 0 c -0.012 -0.486 -0.128 -0.865 -0.344 -1.135 c -0.216 -0.27 -0.522 -0.404 -0.918 -0.404 z" style="fill:#ececec;fill-opacity:1"/>
</svg>
